!!!!SEGMENT: pl-kk--kk-i-7--102_gorczycki-grzegorz-gerwazy--caelestis-urbs-jerusalem.krn
!!!cenid: 16xx:941
!!!COM: Gorczycki, Grzegorz Gerwazy
!!!COM-rismid: pe30009207
!!!CDT: ~1666-1734/04/30
!!!CNT: Polish
!!!OTL: Caelestis urbs Jerusalem
!!!PDT:
!!!AGN: Sacred
!!!SMS-siglum: PL-Kk
!!!SMS-shelfmark: Kk.I.7
!!!SMS-shelfwork: 102 W
!!!SMS-variant:
!!!SMS-altvar:
!!!NIFC-rismid: 300258179
!!!URL-scan: http://repozytorium.nifc.pl/skany/pl-kk-nut--i-7
!!!ONB-nifc: UWAGA: C (skan 0078, s.49), A (0156, s.49), T (0243, s.49), B (0330, s.49). Następny utwór: Alto ex Olympi vertice
**kern	**fba	**text	**text	**text	**text	**text	**kern	**text	**text	**text	**text	**text	**kern	**text	**text	**text	**text	**text	**kern	**text	**text	**text	**text	**text
*part4	*	*part4	*part4	*part4	*part4	*part4	*part3	*part3	*part3	*part3	*part3	*part3	*part2	*part2	*part2	*part2	*part2	*part2	*part1	*part1	*part1	*part1	*part1	*part1
*staff4	*	*staff4	*staff4	*staff4	*staff4	*staff4	*staff3	*staff3	*staff3	*staff3	*staff3	*staff3	*staff2	*staff2	*staff2	*staff2	*staff2	*staff2	*staff1	*staff1	*staff1	*staff1	*staff1	*staff1
*I"BASSVS.	*	*	*	*	*	*	*I"TENOR.	*	*	*	*	*	*I"ALTVS.	*	*	*	*	*	*I"CANTVS.	*	*	*	*	*
*I'B	*	*	*	*	*	*	*I'T	*	*	*	*	*	*I'A	*	*	*	*	*	*I'S	*	*	*	*	*
*clefF4	*	*	*	*	*	*	*clefC4	*	*	*	*	*	*clefC3	*	*	*	*	*	*clefC4	*	*	*	*	*
*k[]	*	*	*	*	*	*	*k[]	*	*	*	*	*	*k[]	*	*	*	*	*	*k[]	*	*	*	*	*
*M3/1	*	*	*	*	*	*	*M3/1	*	*	*	*	*	*M3/1	*	*	*	*	*	*M3/1	*	*	*	*	*
=1	=1	=1	=1	=1	=1	=1	=1	=1	=1	=1	=1	=1	=1	=1	=1	=1	=1	=1	=1	=1	=1	=1	=1	=1
!LO:TX:a:i:t=Pro Dedicatione Eccl(esi)ae Hymn(us) I.	!	!	!	!	!	!	!LO:TX:a:i:t=Pro Dedicatione Eccl(esi)ae Hymn(us) I.	!	!	!	!	!	!LO:TX:a:i:t=Pro Dedicatione Eccl(esi)ae Hymn(us) I.	!	!	!	!	!	!LO:TX:a:i:t=Pro Dedicatione Eccl(esi)ae Hymn(us) I.	!	!	!	!	!
!LO:TX:t=P:problem:przed kluczem inicjał C	!	!	!	!	!	!	!LO:TX:t=P:problem:przed kluczem inicjał C	!	!	!	!	!	!LO:TX:t=P:problem:przed kluczem inicjał C	!	!	!	!	!	!LO:TX:t=P:problem:przed kluczem inicjał C	!	!	!	!	!
(0C\	.	Cae-	O	Hic	Scal-	De-	0.G	Cae-	O	Hîc	Scal-	De-	(0e	Cae-	O	Hîc	Scal-	De-	(0c	Cae-	O	Hîc	Scal-	De-
1BB)	6	.	.	.	.	.	.	.	.	.	.	.	1d)	.	.	.	.	.	1d)	.	.	.	.	.
=2	=2	=2	=2	=2	=2	=2	=2	=2	=2	=2	=2	=2	=2	=2	=2	=2	=2	=2	=2	=2	=2	=2	=2	=2
0AA	.	-le-	sor-	mar-	-pri	-cus	0c	-le-	sor-	mar-	-pri	-cus	0e	-le-	sor-	mar-	-pri	-cus	(1c	-le-	sor-	mar-	-pri	-cus
.	.	.	.	.	.	.	.	.	.	.	.	.	.	.	.	.	.	.	1A)	.	.	.	.	.
1E	5	-stis	-te	-ga-	sa-	Pa-	1B	-stis	-te	-ga-	sa-	Pa-	1e	-stis	-te	-ga-	sa-	Pa-	1G,	-stis	-te	-ga-	sa-	Pa-
=3	=3	=3	=3	=3	=3	=3	=3	=3	=3	=3	=3	=3	=3	=3	=3	=3	=3	=3	=3	=3	=3	=3	=3	=3
0F,	.	Urbs	nu-	-ri-	-lu-	-ren-	0A	urbs	nu-	-ri-	-lu-	-ren-	(1c	Urbs	nu-	-ri-	-lu-	-ren-	(1A	Urbs	nu-	-ri-	-lu-	-ren-
.	.	.	.	.	.	.	.	.	.	.	.	.	1f)	.	.	.	.	.	1c)	.	.	.	.	.
1E	6	Je-	-pta	-tis	-bris	-ti	1c	Je-	-pta	-tis	-bris	-ti	1g	Je-	-pta	-tis	-bris	-ti	1e	Je-	-pta	-tis	-bris	-ti
=4	=4	=4	=4	=4	=4	=4	=4	=4	=4	=4	=4	=4	=4	=4	=4	=4	=4	=4	=4	=4	=4	=4	=4	=4
1.G	.	-ru-	proſ-	e-	ic-	de-	1.B	-ru-	proſ-	e-	ic-	de-	1.g	-ru-	proſ-	e-	ic-	de-	1.d	-ru-	pros-	e-	ic-	de-
*2\right	*	*	*	*	*	*	*2\right	*	*	*	*	*	*2\right	*	*	*	*	*	*2\right	*	*	*	*	*
2G\	.	-sa-	-pe-	-mi-	-ti-	-bi-	2B\	-ſa-	-pe-	-mi-	-ti-	-bi-	2g\	-sa-	-pe-	-mi-	-ti-	-bi-	2d\	-sa-	-pe-	-mi-	-ti-	-bi-
1G	.	-lem!	-ra!	-cant	-bus,	-tum	1B	-lem	-ra	-cant	-bus	-tum	1g	-lem	-ra	-cant	-bus	-tum	1d,	-lem.	-ra,	-cant,	-bus,	-tum,
=5	=5	=5	=5	=5	=5	=5	=5	=5	=5	=5	=5	=5	=5	=5	=5	=5	=5	=5	=5	=5	=5	=5	=5	=5
1r	.	.	.	.	.	.	1r	.	.	.	.	.	1r	.	.	.	.	.	1r	.	.	.	.	.
1C	.	be-	do-	pa-	et	sit	1e	be-	do-	pa-	et	sit	1g	be-	do-	pa-	et	sit	1c	be-	do-	pa-	et	sit
1BB	6	-a-	-ta-	-tent-	tun-	us-	1d	-a-	-ta-	-tent-	tun-	us-	1g	-a-	-ta-	-tent-	tun-	us-	1G	-a-	-ta-	-tent-	tun-	us-
=6	=6	=6	=6	=6	=6	=6	=6	=6	=6	=6	=6	=6	=6	=6	=6	=6	=6	=6	=6	=6	=6	=6	=6	=6
1AA,	.	-ta	-ta	-q(ue)	-ſi-	-que	1c,	-ta	-ta	-que	-ſi-	-que	1e	-ta	-ta	-que	-ſi-	-que	1A,	-ta	-ta	-que	-si-	-que
1AA	.	pa-	Pa-	cun-	-o-	qua-	1c	pa-	Pa-	cun-	-o-	qua-	1e	pa-	Pa-	cun-	-o-	qua-	1A	pa-	Pa-	cun-	-o-	qua-
1GG	.	-cis	-tris	-ctis	-ne	-que	1B	-cis	-tris	-ctis	-ne	-que	1g	-cis	-tris	-ctis	-ne	-que	1B	-cis	-tris	-ctis	-ne	-que
=7	=7	=7	=7	=7	=7	=7	=7	=7	=7	=7	=7	=7	=7	=7	=7	=7	=7	=7	=7	=7	=7	=7	=7	=7
0D	5 4	vi-	glo-	os-	plu-	altiſ-	0A	vi-	glo-	os-	plu-	altiſ-	0g	Vi-	glo-	oſ-	plu-	altiſ-	0d	vi-	glo-	oſ-	plu-	altiſ-
1D	x #3	-ſi-	-ri-	-ti-	-ri-	-si-	1A	-ſi-	-ri-	-ti-	-ri-	-si-	1f#X	-ſi-	-ri-	-ti-	-ri-	-si-	1d	-ſi-	-ri-	-ti-	-ri-	-si-
=8	=8	=8	=8	=8	=8	=8	=8	=8	=8	=8	=8	=8	=8	=8	=8	=8	=8	=8	=8	=8	=8	=8	=8	=8
1GG,	.	-o;	-â,	-a,	-ma.	-mo	1G,	-o	-a	-a,	-ma	-mo	1g,	-o	-a	-a	-ma	-mo	1d,	-o!	-a;	-a,	-ma,	-mo,
*2\left	*	*	*	*	*	*	*	*	*	*	*	*	*	*	*	*	*	*	*	*	*	*	*	*
(2G\	.	quae	reſ-	Vir-	Fa-	Na-	1B	quae	reſ-	Vir-	Fa-	Na-	1d	quae	reſ-	vir-	Fa-	Na-	1B	quae	reſ-	vir-	Fa-	na-
2F\)	.	.	.	.	.	.	.	.	.	.	.	.	.	.	.	.	.	.	.	.	.	.	.	.
*2\right	*	*	*	*	*	*	*	*	*	*	*	*	*	*	*	*	*	*	*	*	*	*	*	*
1E	6\	cel-	-per-	-tu-	-bri	-to-	1c#X	cel-	-per-	-tu-	-bri	-to-	1e	cel-	-per-	-tu-	-bri	-to-	1G	cel-	-per-	-tu-	-bri	-to-
=9	=9	=9	=9	=9	=9	=9	=9	=9	=9	=9	=9	=9	=9	=9	=9	=9	=9	=9	=9	=9	=9	=9	=9	=9
1D,	.	-ſa	-sa	-te	po-	-que	1d	-sa	-sa	-te	po-	-que	1f	-ſa	-sa	-te	po-	-que	1A	-ſa	-sa	-te	po-	-que
1D	.	de	Spon-	nam-	-li-	Pa-	1d	de	Spon-	nam-	-li-	Pa-	1f	de	Spon-	nam-	-li-	Pa-	1A	de	Spon-	nam-	-li-	Pa-
1C	.	vi-	-si	-que	-ta	-tris	1e	vi-	-si	-que	-ta	-tris	1e	vi-	-si	-que	-ta	-tris	1A	vi-	-si	-q(ue)	-ta	-tris
=10	=10	=10	=10	=10	=10	=10	=10	=10	=10	=10	=10	=10	=10	=10	=10	=10	=10	=10	=10	=10	=10	=10	=10	=10
1.D	.	-ven-	gra-	prae-	mal-	u-	1.f	-ven-	gra-	prae-	mal-	u-	1.d	-ven-	gra-	prae-	mal-	u-	1.A	-ven-	gra-	prae-	mal-	u-
2D/	.	-ti-	-ti-	-vi-	-le-	-ni-	2f\	-ti-	-ti-	-vi-	-le-	-ni-	2d\	-ti-	-ti-	-vi-	-le-	-ni-	2A\	-ti-	-ti-	-vi-	-le-	-ni-
!	!	!	!	!	!	!	!LO:SIC:v:t=custos e	!	!	!	!	!	!	!	!	!	!	!	!LO:SIC:v:t=custos A	!	!	!	!	!
1GG	n	-b(us)	-â	-â	-o	-co	1g	-bus	-a	-a	-o	-co	1e	-bus	-a	-a	-o,	-co	1Bn	-bus	-â	-a	-o,	-co
!LO:LB:g=original	!	!	!	!	!	!	!LO:LB:g=original	!	!	!	!	!	!LO:LB:g=original	!	!	!	!	!	!LO:LB:g=original	!	!	!	!	!
=11	=11	=11	=11	=11	=11	=11	=11	=11	=11	=11	=11	=11	=11	=11	=11	=11	=11	=11	=11	=11	=11	=11	=11	=11
1AA	.	sa-	Re-	mor-	hanc	et	1e	sa-	Re-	mor-	hanc	et	1c	sa-	Re-	mor-	hanc	et	1A	sa-	Re-	mor-	hanc	et
1AA	.	-xis	-gi-	-ta-	sa-	in-	1e	-xis	-gi-	-ta-	sa-	in-	1c	-xis	-gi-	-ta-	sa-	in-	1A	-xis	-gi-	-ta-	sa-	in-
1AA	.	ad	-na	-lis	-xa	-cly-	1e	ad	-na	-lis	-xa	-cly-	1c	ad	-na	-lis	-xa	-cly-	1A	ad	-na	-lis	-xa	-cly-
=12	=12	=12	=12	=12	=12	=12	=12	=12	=12	=12	=12	=12	=12	=12	=12	=12	=12	=12	=12	=12	=12	=12	=12	=12
*	*	*	*ij	*ij	*ij	*	*	*	*ij	*	*ij	*	*	*	*ij	*ij	*ij	*	*	*	*ij	*ij	*ij	*
0D	.	as-	Re-	mor-	hanc	-to	0f	as-	Re-	il-	hanc	-to	0d	aſ-	Re-	mor-	hanc	-to	0A	aſ-	Re-	mor-	hanc	-to
1AA	.	-tra,	-gi-	-ta-	sa-	in-	1e	-tra	-gi-	-luc	sa-	in-	1c	-tra	-gi-	-ta-	sa-	in-	1A	-tra,	-gi-	-ta-	sa-	in-
=13	=13	=13	=13	=13	=13	=13	=13	=13	=13	=13	=13	=13	=13	=13	=13	=13	=13	=13	=13	=13	=13	=13	=13	=13
1BB-X,	.	ad	-na	-lis	-xa	-cly-	1d	ad	-na	mor-	-xa	-cly-	1d	ad	-na	-lis	-xa	-cly-	1F	ad	-na	-lis	-xa	-cly-
*	*	*	*Xij	*Xij	*Xij	*	*	*	*Xij	*	*Xij	*	*	*	*Xij	*Xij	*Xij	*	*	*	*Xij	*Xij	*Xij	*
1BB-	.	aſ-	for-	il-	mo-	-to	1d	aſ-	for-	-ta-	mo-	-to	1d	aſ-	for-	il-	mo-	-to	1F	as-	for-	il-	mo-	-to
!	!	!	!	!	!	!	!	!	!	!	!	!	!LO:TX:a:t=e	!	!	!	!	!	!	!	!	!	!	!
1GG	6 5	-tra	-mo-	-luc	-lem	Pa-	1d	-tra	-mo-	-lis	-lem	Pa-	1e	-tra	-mo-	-luc	-lem	Pa-	1B-X	-tra	-mo-	-luc	-lem	Pa-
=14	=14	=14	=14	=14	=14	=14	=14	=14	=14	=14	=14	=14	=14	=14	=14	=14	=14	=14	=14	=14	=14	=14	=14	=14
0AA	5 4	tol-	-siſ-	du-	con-	-ra-	0d	tol-	-siſ-	du-	con-	-ra-	0e	tol-	-siſ-	du-	con-	-ra-	0A	tol-	-siſ-	du-	con-	-ra-
1AA	x #3	-le-	-si-	-ci-	-ſtru-	-cli-	1c#X	-le-	-si-	-ci-	-ſtru-	-cli-	1e	-le-	-si-	-ci-	-ſtru-	-cli-	1A	-le-	-si-	-ci-	-ſtru-	-cli-
=15	=15	=15	=15	=15	=15	=15	=15	=15	=15	=15	=15	=15	=15	=15	=15	=15	=15	=15	=15	=15	=15	=15	=15	=15
0D,	.	-ris,	-ma,	-tur,	-unt,	-to,	0d,	-ris	-ma	-tur,	-unt	-to	0f,	-ris	-ma	-tur	-unt	-to	0A,	-ris;	-ma	-tur,	-unt:	-to;
1D	.	Spon-	Chri-	a-	ap-	Cuî	1f	Spon-	Chri-	a-	ap-	Cui	1a	Spon-	Chri-	a-	ap-	Cuî	1A	Spon-	Chri-	A-	ap-	Cuî
=16	=16	=16	=16	=16	=16	=16	=16-	=16	=16	=16	=16	=16	=16	=16	=16	=16	=16	=16	=16	=16	=16	=16	=16	=16
0En	6	-sae-	-sto	-mo-	-tis-	laus,	0e	-sae-	-sto	-mo-	-tis-	laus	0g	-sae-	-sto	-mo-	-tis-	laus	0c	-sae-	-sto	-mo-	-tis-	laus
1E	.	-que	ju-	-re	-que	po-	1e	-que	ju-	-re	-que	po-	1g	-que	ju-	-re	-q(ue)	po-	1c	-que	ju-	-re	-que	po-
=17	=17	=17	=17	=17	=17	=17	=17	=17	=17	=17	=17	=17	=17	=17	=17	=17	=17	=17	=17	=17	=17	=17	=17	=17
(1F	.	ri-	-ga-	Chri-	jun-	-teſ-	(1c	ri-	-ga-	Chri-	jun-	-tes-	0f	ri-	-ga-	Chri-	jun-	-teſ-	(1A	ri-	-ga-	Chri-	jun-	-tes-
1D)	.	.	.	.	.	.	1f)	.	.	.	.	.	.	.	.	.	.	.	1d)	.	.	.	.	.
1E	6	-tu	-ta	-sti	-cta	-tas,	1e	-tu	-ta	-sti	-cta	-tas	1g	-tu	-ta	-ſti	-cta	-tas	1c	-tu	-ta	-sti	-cta	-tas
=18	=18	=18	=18	=18	=18	=18	=18	=18	=18	=18	=18	=18	=18	=18	=18	=18	=18	=18	=18	=18	=18	=18	=18	=18
1.G	.	cin-	Prin-	per-	ne-	Glo-	1.d	cin-	Prin-	per-	ne-	glo-	1.g	cin-	Prin-	per-	ne-	glo-	1.Bn	cin-	Prin-	per-	ne-	Glo-
2G\	.	-ge-	-ci-	-ci-	-xi-	-ri-	2d\	-ge-	-ci-	-ci-	-xi-	-ri-	2g\	-ge-	-ci-	-ci-	-xi-	-ri-	2B\	-ge-	-ci-	-ci-	-xi-	-ri-
1G,	.	-ris,	-pi,	-tus.	-b(us),	-a,	1d	-ris,	-pi	-tus	-b(us)	-a	1g	-ris,	-pi	-tus	-b(us)	-a	1B	-ris,	-pi,	-tus,	-b(us),	-a
=19	=19	=19	=19	=19	=19	=19	=19	=19	=19	=19	=19	=19	=19	=19	=19	=19	=19	=19	=19	=19	=19	=19	=19	=19
0E	5	mil-	Cae-	tor-	lo-	ae-	0g	mil-	Cae-	tor-	lo-	ae-	0g	mil-	Cae-	tor-	lo-	ae-	0B	mil-	Cae-	tor-	lo-	ae-
1E	.	-le	-li	-men-	-can-	-ter-	1g	-le	-li	-men-	-can-	-ter-	1g	-le	-li	-men-	-can-	-ter-	1B	-le	-li	-men-	-can-	-ter-
=20	=20	=20	=20	=20	=20	=20	=20	=20	=20	=20	=20	=20	=20	=20	=20	=20	=20	=20	=20	=20	=20	=20	=20	=20
1.F	.	an-	co-	-ta	-tur	-na	1.f	an-	co-	-ta	-tur	-na	1.a	an-	co-	-ta	-tur	-na	1.A	an-	co-	-ta	-tur	-na
2F\	.	-ge-	-ru-	quis-	in	sit	2f\	-ge-	-ru-	quis-	in	sit	2a\	-ge-	-ru-	quis-	in	sit	2A\	-ge-	-ru-	quis-	in	sit
1A	.	-lo-	-ſca	-quis	fas-	per	1e	-lo-	-ſca	-quis	fas-	per	1a	-lo-	-ſca	-quis	fas-	per	1c	-lo-	-ſca	-quis	fas-	per
=21	=21	=21	=21	=21	=21	=21	=21	=21	=21	=21	=21	=21	=21	=21	=21	=21	=21	=21	=21	=21	=21	=21	=21	=21
1F,	6_ 5	-rum	Ci-	suſ-	-ti-	sae-	1d	-rum	Ci-	suſ-	-ti-	sae-	1a	-rum	Ci-	suſ-	-ti-	sae-	1c	-rum	Ci-	suſ-	-ti-	sae-
1F	X X	mil-	-vi-	-ti-	-gi-	-cu-	1.d	mil-	-vi-	-ti-	-gi-	-cu-	1.a	mil-	-vi-	-ti-	-gi-	-cu-	1c	mil-	-vi-	-ti-	-gi-	-cu-
1G	.	-li-	.	.	.	.	.	.	.	.	.	.	.	.	.	.	.	.	1B	-li-	.	.	.	.
.	.	.	.	.	.	.	2d\	-li-	-tas.	-net.	-o.	-la	2g\	-li-	.	.	.	.	.	.	.	.	.	.
=22-	=22	=22	=22	=22	=22	=22	=22	=22	=22	=22	=22	=22	=22-	=22	=22	=22	=22	=22	=22	=22	=22	=22	=22	=22
0.C	.	-b(us).	-tas.	-net.	-o.	-la.	0.c	-b(us).	.	.	.	.	0.g	-b(us).	-tas.	-net.	-o.	-la	0.c	-b(us).	-tas.	-net.	-o.	-la
=23||	=23||	=23||	=23||	=23||	=23||	=23||	=23||	=23||	=23||	=23||	=23||	=23||	=23||	=23||	=23||	=23||	=23||	=23||	=23||	=23||	=23||	=23||	=23||	=23||
*M2/1	*	*	*	*	*	*	*M2/1	*	*	*	*	*	*M2/1	*	*	*	*	*	*M2/1	*	*	*	*	*
*met(c)	*	*	*	*	*	*	*met(c)	*	*	*	*	*	*met(c)	*	*	*	*	*	*	*	*	*	*	*
!	!	!	!	!	!	!	!	!	!	!	!	!	!	!	!	!	!	!	!LO:TX:t=P:problem:met(c)	!	!	!	!	!
2F\	.	A-	.	.	.	.	2c\	.	.	.	.	A-	2f\	A-	.	.	.	.	2A\	.	.	.	.	A-
2E\	6	.	.	.	.	.	2e\	.	.	.	.	.	2g,\	.	.	.	.	.	1c	.	.	.	.	.
1G	5 4	.	.	.	.	.	1d	.	.	.	.	.	1g	.	.	.	.	.	.	.	.	.	.	.
.	x 3	.	.	.	.	.	.	.	.	.	.	.	.	.	.	.	.	.	2B\	.	.	.	.	.
=24-	=24	=24	=24	=24	=24	=24	=24-	=24	=24	=24	=24	=24	=24-	=24	=24	=24	=24	=24	=24-	=24	=24	=24	=24	=24
!	!	!	!	!	!	!	!LO:N:vis=1	!	!	!	!	!	!	!	!	!	!	!	!LO:N:vis=1	!	!	!	!	!
0C	.	-men.	.	.	.	.	0c	.	.	.	.	-men.	0g;	-men.	.	.	.	.	0c;	.	.	.	.	-men
==	==	==	==	==	==	==	==	==	==	==	==	==	==	==	==	==	==	==	==	==	==	==	==	==
*-	*-	*-	*-	*-	*-	*-	*-	*-	*-	*-	*-	*-	*-	*-	*-	*-	*-	*-	*-	*-	*-	*-	*-	*-
!!!system-decoration: [s1,s2,s3,s4]
!!!ENC: Marta Lawrence
!!!END: 2021-03-20
!!!ENC: Andrzej Borzym
!!!END: 2021-03-04
